X: 471
T: Jane's Heart Inclines to Me
N:"Cheerful" "collected by J.O'Neill"
N:Irish title: claoneann .croi.de mo .sineid liom
B:O'Neill's 471
Z:Transcribed by henrik.norbeck@mailbox.swipnet.se
M:6/8
L:1/8
K:Em
(G/F/) | .E(E>F) {A}GFE | .e(e>f) {a}gfe | (d<g).d (~dB).G | FDF {B}AGF |
.E(E>F) {A}GFE | .e(e>f) Hg2 (g/a/) | .b.g.e (~dB).A | (~GE).E E2 :|
(e/f/) | .g2 (f/4g/4a/4b/4) afd | {a}gfe dBd | (e/f/g/f/g/a/ g).d.B |
.D.A.G .F.E.^D | (E2 e) (g2 f) | .b.a.g .f.g.a | g(a/g/f/e/) (~dB).A | (~GE).E E2 :|


